public/share/download-as-html-zimo.svg

<?xml version="1.0" encoding="UTF-8" standalone="no"?>
<!DOCTYPE svg PUBLIC "-//W3C//DTD SVG 1.1//EN" "http://www.w3.org/Graphics/SVG/1.1/DTD/svg11.dtd">
<!-- Created with Vectornator (http://vectornator.io/) -->
<svg height="100%" stroke-miterlimit="10" style="fill-rule:nonzero;clip-rule:evenodd;stroke-linecap:round;stroke-linejoin:round;" version="1.1" viewBox="0 0 24 24" width="100%" xml:space="preserve" xmlns="http://www.w3.org/2000/svg" xmlns:vectornator="http://vectornator.io" xmlns:xlink="http://www.w3.org/1999/xlink">
<defs/>
<g id="Untitled" vectornator:layerName="Untitled">
<path d="M12 1.28271L12 16.7632M12 16.7632L16.7632 11.5534M12 16.7632L7.23676 11.5534" fill="none" opacity="1" stroke="#171717" stroke-linecap="round" stroke-linejoin="round" stroke-width="2" vectornator:layerName="path"/>
<path d="M15.5724 22.7173L8.42757 22.7173C5.05944 22.7173 3.37539 22.7173 2.32905 21.6709C1.28271 20.6246 1.28271 18.9405 1.28271 15.5724M22.7173 15.5724C22.7173 18.9405 22.7173 20.6246 21.6709 21.6709C21.3139 22.0279 20.8827 22.2631 20.3357 22.418" fill="none" opacity="1" stroke="#171717" stroke-linecap="round" stroke-linejoin="round" stroke-width="2" vectornator:layerName="path"/>
</g>
</svg>

<svg xmlns="http://www.w3.org/2000/svg" xmlns:vectornator="http://vectornator.io" xml:space="preserve" stroke-miterlimit="10" style="fill-rule:nonzero;clip-rule:evenodd;stroke-linecap:round;stroke-linejoin:round" viewBox="0 0 24 24"><g vectornator:layerName="Untitled" fill="none" stroke="#171717" stroke-width="2"><path vectornator:layerName="path" d="M12 1.283v15.48m0 0 4.763-5.21M12 16.763l-4.763-5.21M15.572 22.717H8.428c-3.369 0-5.053 0-6.099-1.046-1.046-1.046-1.046-2.73-1.046-6.099m21.434 0c0 3.369 0 5.053-1.046 6.099-.357.357-.788.592-1.335.747"/></g></svg>
